packages/assets/static/images/icons/bold/images--bold.svg

<svg width="24" height="24" viewBox="0 0 24 24" xmlns="http://www.w3.org/2000/svg">
<path d="M15 8.25049C15 7.95382 15.0879 7.66381 15.2528 7.41713C15.4176 7.17046 15.6519 6.9782 15.9259 6.86467C16.2 6.75114 16.5016 6.72143 16.7926 6.77931C17.0836 6.83719 17.3509 6.98005 17.5606 7.18983C17.7704 7.39961 17.9133 7.66688 17.9711 7.95785C18.029 8.24882 17.9993 8.55042 17.8858 8.82451C17.7723 9.0986 17.58 9.33287 17.3333 9.49769C17.0867 9.66251 16.7966 9.75049 16.5 9.75049C16.1021 9.75049 15.7206 9.59245 15.4393 9.31115C15.158 9.02984 15 8.64831 15 8.25049ZM22.125 5.25049V15.0005C22.125 15.4978 21.9274 15.9747 21.5758 16.3263C21.2242 16.6779 20.7472 16.8755 20.25 16.8755H19.125V18.7505C19.125 19.2478 18.9274 19.7247 18.5758 20.0763C18.2242 20.4279 17.7473 20.6255 17.25 20.6255H3.74997C3.25269 20.6255 2.77577 20.4279 2.42414 20.0763C2.07251 19.7247 1.87497 19.2478 1.87497 18.7505V8.25049C1.87497 7.75321 2.07251 7.27629 2.42414 6.92466C2.77577 6.57303 3.25269 6.37549 3.74997 6.37549H5.62497V5.25049C5.62497 4.75321 5.82251 4.27629 6.17414 3.92466C6.52577 3.57303 7.00269 3.37549 7.49997 3.37549H20.25C20.7472 3.37549 21.2242 3.57303 21.5758 3.92466C21.9274 4.27629 22.125 4.75321 22.125 5.25049ZM16.875 16.8755H7.49997C7.00269 16.8755 6.52577 16.6779 6.17414 16.3263C5.82251 15.9747 5.62497 15.4978 5.62497 15.0005V8.62549H4.12497V18.3755H16.875V16.8755ZM14.8443 14.6255L11.625 11.4061L8.40559 14.6255H14.8443ZM19.875 5.62549H7.87497V11.9742L10.2993 9.54986C10.651 9.19836 11.1278 9.00089 11.625 9.00089C12.1222 9.00089 12.599 9.19836 12.9506 9.54986L18.0262 14.6255H19.875V5.62549Z"/>
</svg>

<svg viewBox="0 0 24 24" xmlns="http://www.w3.org/2000/svg" aria-hidden="true" fill="currentColor"><path d="M15 8.25a1.5 1.5 0 1 1 2.999 0 1.5 1.5 0 0 1-2.999 0m7.125-3V15a1.875 1.875 0 0 1-1.875 1.875h-1.125v1.875a1.875 1.875 0 0 1-1.875 1.875H3.75a1.875 1.875 0 0 1-1.875-1.875V8.25A1.875 1.875 0 0 1 3.75 6.375h1.875V5.25A1.875 1.875 0 0 1 7.5 3.375h12.75a1.875 1.875 0 0 1 1.875 1.875m-5.25 11.625H7.5a1.875 1.875 0 0 1-1.875-1.874V8.625h-1.5v9.75h12.75zm-2.03-2.25-3.22-3.219-3.22 3.22zm5.03-9h-12v6.35l2.424-2.425a1.875 1.875 0 0 1 2.652 0l5.075 5.076h1.849z"/></svg>
